src/travel-places/transport-ground/1F6F9.svg

<svg id="emoji" viewBox="0 0 72 72" xmlns="http://www.w3.org/2000/svg">
  <g id="grid">
    <path fill="#b3b3b3" d="M68,4V68H4V4H68m4-4H0V72H72V0Z"/>
    <path fill="none" stroke="#00a5ff" stroke-miterlimit="10" stroke-width="0.1" d="M12.923,10.9583H59.0769A1.9231,1.9231,0,0,1,61,12.8814V59.0352a1.9231,1.9231,0,0,1-1.9231,1.9231H12.9231A1.9231,1.9231,0,0,1,11,59.0352V12.8813A1.923,1.923,0,0,1,12.923,10.9583Z"/>
    <rect x="16" y="4" rx="2.2537" width="40" height="64" fill="none" stroke="#00a5ff" stroke-miterlimit="10" stroke-width="0.1"/>
    <rect x="16" y="4" rx="2.2537" width="40" height="64" transform="translate(72) rotate(90)" fill="none" stroke="#00a5ff" stroke-miterlimit="10" stroke-width="0.1"/>
    <circle cx="36" cy="36" r="29" fill="none" stroke="#00a5ff" stroke-miterlimit="10" stroke-width="0.1"/>
  </g>
  <g id="line-supplement">
    <g>
      <circle cx="51" cy="47.9995" r="3"/>
      <circle cx="21" cy="47.9995" r="3"/>
    </g>
  </g>
  <g id="color">
    <path fill="#61b2e4" d="M56.4082,43H15.5918c-2.8975,0-5.4512-3.4863-5.47-3.5215A.9948.9948,0,0,1,10,39.001v-2a1,1,0,0,1,1.7861-.6182C12.3213,37.0615,14.1689,39,15.5918,39H56.4082c1.4326,0,3.2725-1.9375,3.8037-2.6152A1,1,0,0,1,62,37v2a.9979.9979,0,0,1-.2109.6143C61.5186,39.9609,59.0732,43,56.4082,43ZM15.5918,41h0ZM60.999,39.001h0ZM11,39.001h0Z"/>
    <g>
      <circle cx="51" cy="47.9995" r="3" fill="#d22f27"/>
      <circle cx="21" cy="47.9995" r="3" fill="#d22f27"/>
    </g>
  </g>
  <g id="line">
    <path d="M56.4082,43H15.5918c-2.8594,0-5.4453-3.4775-5.4658-3.5127a1,1,0,0,1,1.6963-1.0547C12.3477,39.1289,14.1855,41,15.5918,41H56.4082c1.4326,0,3.2725-1.9375,3.8037-2.6152a1,1,0,0,1,1.5772,1.23C61.5186,39.9609,59.0732,43,56.4082,43Z"/>
    <path fill="none" stroke="#000" stroke-linecap="round" stroke-miterlimit="10" stroke-width="2" d="M52,46.2674a2,2,0,1,1-2,3.4641"/>
    <path fill="none" stroke="#000" stroke-linecap="round" stroke-miterlimit="10" stroke-width="2" d="M22,46.2674a2,2,0,1,1-2,3.4641"/>
  </g>
</svg>

<svg viewBox="0 0 72 72" xmlns="http://www.w3.org/2000/svg"><path fill="#b3b3b3" d="M68 4v64H4V4h64m4-4H0v72h72V0z"/><path fill="none" stroke="#00a5ff" stroke-miterlimit="10" stroke-width=".1" d="M12.923 10.958h46.154A1.923 1.923 0 0161 12.881v46.154a1.923 1.923 0 01-1.923 1.923H12.923A1.923 1.923 0 0111 59.035V12.881a1.923 1.923 0 011.923-1.923z"/><rect x="16" y="4" rx="2.254" width="40" height="64" fill="none" stroke="#00a5ff" stroke-miterlimit="10" stroke-width=".1"/><rect x="16" y="4" rx="2.254" width="40" height="64" transform="rotate(90 36 36)" fill="none" stroke="#00a5ff" stroke-miterlimit="10" stroke-width=".1"/><circle cx="36" cy="36" r="29" fill="none" stroke="#00a5ff" stroke-miterlimit="10" stroke-width=".1"/><g stroke-linecap="round" stroke-miterlimit="10" stroke-width="6" stroke="#fff" fill="none" stroke-linejoin="round"><circle cx="51" cy="47.999" r="3"/><circle cx="21" cy="47.999" r="3"/><path d="M56.408 43H15.592c-2.86 0-5.446-3.478-5.466-3.513a1 1 0 011.696-1.054c.526.696 2.364 2.567 3.77 2.567h40.816c1.433 0 3.273-1.938 3.804-2.615a1 1 0 011.577 1.23C61.52 39.96 59.073 43 56.41 43zM52 46.267a2 2 0 11-2 3.464m-28-3.464a2 2 0 11-2 3.464"/></g><circle cx="51" cy="47.999" r="3"/><circle cx="21" cy="47.999" r="3"/><path fill="#61b2e4" d="M56.408 43H15.592c-2.898 0-5.451-3.486-5.47-3.522a.995.995 0 01-.122-.477v-2a1 1 0 011.786-.618C12.321 37.06 14.17 39 15.592 39h40.816c1.433 0 3.273-1.938 3.804-2.615A1 1 0 0162 37v2a.998.998 0 01-.21.614c-.271.347-2.717 3.386-5.382 3.386zm-40.816-2zm45.407-1.999zm-49.999 0z"/><g fill="#d22f27"><circle cx="51" cy="47.999" r="3"/><circle cx="21" cy="47.999" r="3"/></g><g><path d="M56.408 43H15.592c-2.86 0-5.446-3.478-5.466-3.513a1 1 0 011.696-1.054c.526.696 2.364 2.567 3.77 2.567h40.816c1.433 0 3.273-1.938 3.804-2.615a1 1 0 011.577 1.23C61.52 39.96 59.073 43 56.41 43z"/><path fill="none" stroke="#000" stroke-linecap="round" stroke-miterlimit="10" stroke-width="2" d="M52 46.267a2 2 0 11-2 3.464m-28-3.464a2 2 0 11-2 3.464"/></g></svg>
